X:1
T:Tenor Madness
C:Sonny Rollins
L:1/8
M:4/4
K:Bb
V:1 treble nm="[Alto Saxophone]"
V:1
 d- ||"Bb7" d B2G B2z_d- |"Eb7" _d B2G B2z=d- |"Bb7" d B2G BcBG |"Fm7" BcBB"Bb7"z2z_d- | %5
"Eb7" _d B2G B2zd- | _d B2G B2z=d- |"Bb7" d B2G BcBG | BcBBz2zc- |"Dm7" c G2c"G7" =BGEC | %10
"Cm7" BG^GA"F7"z2zd- |"Bb7" d B2G BcBG | BcBB z4 |] %13

